usr/share/icons/biglinux-icons-material/symbolic/actions/edit-copy-symbolic.svg

<svg width="16" height="16" enable-background="new" version="1.1" xmlns="http://www.w3.org/2000/svg">
 <path d="m6 0c-1.1046 0-2 0.89543-2 2v10c0 1.1046 0.89543 2 2 2h6c1.1046 0 2-0.8954 2-2v-10c0-1.1046-0.8954-2-2-2zm-1 2c0-0.55228 0.44772-1 1-1h6c0.5523 0 1 0.44772 1 1v10c0 0.5523-0.4477 1-1 1h-6c-0.55228 0-1-0.4477-1-1zm-3 2c0-0.74028 0.4022-1.3866 1-1.7324v10.232c0 1.3807 1.1193 2.5 2.5 2.5h6.2324c-0.3458 0.5978-0.9921 1-1.7324 1h-4.5c-1.933 0-3.5-1.567-3.5-3.5z" fill="#363636"/>
</svg>

<svg xmlns="http://www.w3.org/2000/svg" width="16" height="16"><path fill="#dedede" d="M6 0a2 2 0 0 0-2 2v10a2 2 0 0 0 2 2h6a2 2 0 0 0 2-2V2a2 2 0 0 0-2-2zM5 2a1 1 0 0 1 1-1h6a1 1 0 0 1 1 1v10a1 1 0 0 1-1 1H6a1 1 0 0 1-1-1zM2 4a2 2 0 0 1 1-1.732V12.5A2.5 2.5 0 0 0 5.5 15h6.232A2 2 0 0 1 10 16H5.5A3.5 3.5 0 0 1 2 12.5z"/></svg>
